dist/assets/symbols/facebook.svg

<svg viewBox="0 0 20 20" fill="none" xmlns="http://www.w3.org/2000/svg">
<path d="M14.1667 1.66663H11.6667C10.5616 1.66663 9.50179 2.10561 8.72039 2.88701C7.93899 3.66842 7.5 4.72822 7.5 5.83329V8.33329H5V11.6666H7.5V18.3333H10.8333V11.6666H13.3333L14.1667 8.33329H10.8333V5.83329C10.8333 5.61228 10.9211 5.40032 11.0774 5.24404C11.2337 5.08776 11.4457 4.99996 11.6667 4.99996H14.1667V1.66663Z" fill="currentColor"/>
</svg>

<svg xmlns="http://www.w3.org/2000/svg" fill="none" viewBox="0 0 20 20"><path fill="currentColor" d="M14.167 1.667h-2.5A4.167 4.167 0 0 0 7.5 5.833v2.5H5v3.334h2.5v6.666h3.333v-6.666h2.5l.834-3.334h-3.334v-2.5A.833.833 0 0 1 11.667 5h2.5V1.667Z"/></svg>
